assets/icons/qvision/fastfood.svg

<svg xmlns="http://www.w3.org/2000/svg" height="24" viewBox="0 0 24 24" width="24"><path d="M0 0h24v24H0z" fill="none"/><path d="M18.06 22.99h1.66c.84 0 1.53-.64 1.63-1.46L23 5.05h-5V1h-1.97v4.05h-4.97l.3 2.34c1.71.47 3.31 1.32 4.27 2.26 1.44 1.42 2.43 2.89 2.43 5.29v8.05zM1 21.99V21h15.03v.99c0 .55-.45 1-1.01 1H2.01c-.56 0-1.01-.45-1.01-1zm15.03-7c0-8-15.03-8-15.03 0h15.03zM1.02 17h15v2h-15z"/></svg>

<svg width="24" height="24" viewBox="0 0 24 24" fill="none" xmlns="http://www.w3.org/2000/svg">
<g clip-path="url(#clip0_147_5290)">
<path d="M18.06 22.99H19.72C20.56 22.99 21.25 22.35 21.35 21.53L23 5.05H18V1H16.03V5.05H11.06L11.36 7.39C13.07 7.86 14.67 8.71 15.63 9.65C17.07 11.07 18.06 12.54 18.06 14.94V22.99ZM1 21.99V21H16.03V21.99C16.03 22.54 15.58 22.99 15.02 22.99H2.01C1.45 22.99 1 22.54 1 21.99ZM16.03 14.99C16.03 6.99 1 6.99 1 14.99H16.03ZM1.02 17H16.02V19H1.02V17Z" fill="#323232"/>
</g>
<defs>
<clipPath id="clip0_147_5290">
<rect width="24" height="24" fill="white"/>
</clipPath>
</defs>
</svg>
